svgs/swift_installer.svg

<svg xmlns="http://www.w3.org/2000/svg" viewBox="0 0 192 192"><path d="m44.919 90.262 52.652-52.793a14.856 14.856 0 0 1 6.673-3.861 14.797 14.797 0 0 1 7.7.008 14.863 14.863 0 0 1 6.664 3.876L171.146 90.4a14.989 14.989 0 0 1 4.346 10.574 14.992 14.992 0 0 1-4.369 10.565l-52.652 52.793a14.846 14.846 0 0 1-10.523 4.367 14.848 14.848 0 0 1-10.514-4.39l-52.538-52.908a14.989 14.989 0 0 1-4.346-10.574 14.988 14.988 0 0 1 4.369-10.565M97.571 37.469 118.484 16.5m-21.486 95.452 22.045-22.104m-11.537 32.686 22.045-22.104m-43.06.941 22.045-22.104M52.51 157.408c0-9.992-18.005-38.139-18.005-38.139S16.5 147.416 16.5 157.408a18.157 18.157 0 0 0 3.418 10.664 18.016 18.016 0 0 0 9.012 6.596 17.927 17.927 0 0 0 11.149 0 18.007 18.007 0 0 0 9.012-6.596 18.158 18.158 0 0 0 3.419-10.664Z" fill="none" stroke="#000" stroke-width="12" stroke-linecap="round" stroke-linejoin="round"/></svg>

<svg
    xmlns="http://www.w3.org/2000/svg"
    viewBox="0 0 192 192"
    id="vector">
    <path
        id="path"
        d="M 44.919 90.262 L 97.571 37.469 C 99.419 35.616 101.721 34.284 104.244 33.608 C 106.766 32.931 109.423 32.934 111.944 33.616 C 114.465 34.298 116.764 35.635 118.608 37.492 L 171.146 90.4 C 173.932 93.205 175.496 97.011 175.492 100.974 C 175.487 104.937 173.915 108.74 171.123 111.539 L 118.471 164.332 C 115.68 167.131 111.891 168.703 107.948 168.699 C 104.004 168.694 100.219 167.114 97.434 164.309 L 44.896 111.401 C 42.11 108.596 40.546 104.79 40.55 100.827 C 40.554 96.864 42.127 93.061 44.919 90.262"
        fill="none"
        stroke="#000000"
        stroke-width="12"
        stroke-linecap="round"
        stroke-linejoin="round"/>
    <path
        id="path_1"
        d="M 97.571 37.469 L 118.484 16.5 M 96.998 111.952 L 119.043 89.848 M 107.506 122.534 L 129.551 100.43 M 86.491 101.371 L 108.536 79.267 M 52.51 157.408 C 52.51 147.416 34.505 119.269 34.505 119.269 C 34.505 119.269 16.5 147.416 16.5 157.408 C 16.488 161.236 17.685 164.971 19.918 168.072 C 22.152 171.173 25.308 173.483 28.93 174.668 C 32.552 175.853 36.457 175.853 40.079 174.668 C 43.702 173.483 46.858 171.173 49.091 168.072 C 51.324 164.971 52.522 161.236 52.51 157.408 Z"
        fill="none"
        stroke="#000000"
        stroke-width="12"
        stroke-linecap="round"
        stroke-linejoin="round"/>
</svg>
